build/img/icon-arr-slide.svg

<svg width="16" height="11" viewBox="0 0 16 11" fill="none" xmlns="http://www.w3.org/2000/svg">
<path d="M15.71 5.2857L11.71 1.28965C11.6168 1.1965 11.5061 1.12262 11.3842 1.07221C11.2624 1.0218 11.1319 0.99585 11 0.99585C10.8681 0.99585 10.7376 1.0218 10.6158 1.07221C10.4939 1.12262 10.3832 1.1965 10.29 1.28965C10.1968 1.3828 10.1228 1.49338 10.0723 1.61508C10.0219 1.73678 9.99591 1.86722 9.99591 1.99895C9.99591 2.13068 10.0219 2.26112 10.0723 2.38282C10.1228 2.50452 10.1968 2.6151 10.29 2.70825L12.59 4.99599H1C0.734784 4.99599 0.48043 5.10124 0.292893 5.28859C0.105357 5.47594 0 5.73004 0 5.995C0 6.25995 0.105357 6.51405 0.292893 6.70141C0.48043 6.88876 0.734784 6.99401 1 6.99401H12.59L10.29 9.28175C10.1963 9.37462 10.1219 9.48511 10.0711 9.60685C10.0203 9.72859 9.9942 9.85916 9.9942 9.99104C9.9942 10.1229 10.0203 10.2535 10.0711 10.3752C10.1219 10.497 10.1963 10.6075 10.29 10.7003C10.383 10.794 10.4936 10.8683 10.6154 10.919C10.7373 10.9697 10.868 10.9958 11 10.9958C11.132 10.9958 11.2627 10.9697 11.3846 10.919C11.5064 10.8683 11.617 10.794 11.71 10.7003L15.71 6.7043C15.801 6.60929 15.8724 6.49725 15.92 6.37462C16.02 6.1314 16.02 5.85859 15.92 5.61537C15.8724 5.49274 15.801 5.38071 15.71 5.2857Z" fill="#151515"/>
</svg>

<svg width="16" height="11" fill="none" xmlns="http://www.w3.org/2000/svg"><path d="M15.71 5.286l-4-3.996a1.003 1.003 0 00-1.42 1.418l2.3 2.288H1a1 1 0 00-.707 1.705A1 1 0 001 6.994h11.59l-2.3 2.288a1 1 0 00.325 1.637 1.001 1.001 0 001.095-.219l4-3.996a1 1 0 00.21-.33c.1-.243.1-.515 0-.759a1 1 0 00-.21-.33z" fill="#151515"/></svg>
